X:156
T:Molly O - Hard
%%VWML:SBG-1-2-701-0
F:http://www.vwml.org/record/SBG/1/2/701
Z:Original Sibelius transcriptions by M. & S. Graebe
M:3/4
I:linebreak $
K:A
V:1 treble nm="P1"
V:1
"^Time sig. given as 6/8." E2 | AB c3 f | ec A3 B | dc B2 A2 | GB E3 A | GF E2 FG |$ AB c3 c | %7
 fe c2"^[erasures & crossing out " B2 | AB z z z2 | Bc d3 g | fe !fermata!c2 z2 |$ eB c2 ^de | %12
 f2 e3 =d | dc B3 c | AG F3 G/G/ | dc B3 G | A2 A3 x | %17



